!!!COM:	Bach, Johann Sebastian
!!!OMV:	Vater unser im Himmelreich
!!!OTL:	Vater unser im Himmelreich
**kern	**fb	**kern	**kern	**kern	**kern
*part5	*part5	*part4	*part3	*part2	*part1
*staff5	*	*staff4	*staff3	*staff2	*staff1
*I"Continuo	*	*I"Voice	*I"Voice	*I"Voice	*I"Voice
*I'Cont.	*	*I'V	*I'V	*I'V	*I'V
*clefF4	*	*clefF4	*clefGv2	*clefG2	*clefG2
*Trd0c0	*	*	*	*	*
*k[b-e-]	*	*k[b-e-]	*k[b-e-]	*k[b-e-]	*k[b-e-]
*M4/4	*	*M4/4	*M4/4	*M4/4	*M4/4
4C	.	4C	4c	4e-	4g
=2	=2	=2	=2	=2	=2
4BBn	6	4BBn	4G	4d	4g
4C	.	4C	4G	4c	4e-
4A-X	6	4A-X	4c	8cL	4f
.	.	.	.	8dJ	.
8E-L	6	8E-L	8cL	8e-L	8gL
8FJ	.	8FJ	8A-XJ	8dJ	8fJ
=3	=3	=3	=3	=3	=3
4G	6 4	4G	4G	4c	4e-
4GG	5 n	4GG	8GL	4Bn	4d
.	.	.	8FJ	.	.
4C;	.	4C;	4E-;	4G;	4c;
4c	.	4c	4c	4e-	4g
=4	=4	=4	=4	=4	=4
8GL	6	8GL	4B-	4e-	4g
8A-XJ	.	8A-XJ	.	.	.
4B-	.	4B-	4B-	8dL	4f
.	.	.	.	8e-J	.
4D	6	4D	4B-	4f	4b-
4E-	.	4E-	4B-	8e-L	8gL
.	.	.	.	8dJ	8fJ
=5	=5	=5	=5	=5	=5
4A-X	7	4A-X	4c	8cL	4e-
.	.	.	.	8BnJ	.
4AA-X	6	4AA-X	4A-X	8cL	4f
.	.	.	.	8dJ	.
4GG;	n	4GG;	4D;	4B;	4g;
4C	.	4C	4c	4e-	8gL
.	.	.	.	.	8anJ
=6	=6	=6	=6	=6	=6
!!linebreak:original
4G	3	4G	4B-	4d	4b-
4F	5 -	4F	4A-X	8e-L	8ccL
.	.	.	.	8fJ	8ddJ
4E-	6	4E-	4G	4g	4ee-
8FL	6 n	8FL	8AnL	4f	4dd
8GJ	5 n	8GJ	8BnJ	.	.
=7	=7	=7	=7	=7	=7
4A-X	5	4A-X	4c	8e-L	4cc
.	6	.	.	8fJ	.
4G	n	4G	4d	4g	4bn
4C;	.	4C;	4e-;	4g;	4cc;
4F	n	4F	4A	4f	4cc
=8	=8	=8	=8	=8	=8
4B-	.	4B-	4B-	4f	4dd
4A	#6\	4A	4c	4f#X	4cc
4G	.	4G	4d	4g	4b-
8CL	6 5	8CL	8e-L	8gL	4a
8DJ	#	8DJ	8dJ	8f#J	.
=9	=9	=9	=9	=9	=9
4E-	7	4E-	8dL	4g	4g
.	6	.	8cJ	.	.
4D	7 #	4D	8cL	4f#X	4a
.	.	.	8BnJ	.	.
4GG;	n	4GG;	4B;	4d;	4g;
8FL	5	8FL	4A	4fn	4cc
8E-J	.	8E-J	.	.	.
=10	=10	=10	=10	=10	=10
4D	6	4D	4B-	4f	4b-
4C	6	4C	4c	4e-	4a
4BB-	5	4BB-	4F	4d	8b-L
.	.	.	.	.	8a-XJ
8CL	.	8CL	4E-	8e-L	4g
8BB-J	.	8BB-J	.	8dJ	.
=11	=11	=11	=11	=11	=11
4AA-X	7 5	4AA-X	4E-	4c	4g
4BB-	.	4BB-	8B-L	4d	4f
.	.	.	8A-XJ	.	.
4E-;	.	4E-;	4G;	4B-;	4e-;
4En	6 5	4En	4c	4c	4g
=12	=12	=12	=12	=12	=12
!!pagebreak:original
4F	-	4F	4c	4f	4a-X
4G	n	4G	4Bn	8e-L	8gL
.	.	.	.	8dJ	8fJ
8A-XL	5	8A-XL	8cL	4c	4e-
8GJ	.	8GJ	8B-XJ	.	.
4F	6 -	4F	4A-X	8dL	4f
.	5	.	.	8cJ	.
=13	=13	=13	=13	=13	=13
4G	6 n	4G	4G	8BnL	4e-
.	4	.	.	8cJ	.
4GG	5 4	4GG	8GL	8cL	4d
.	n	.	8FJ	8BJ	.
4CC;	n	4C;	4En;	4G;	4c;
=||	=||	=||	=||	=||	=||
*-	*-	*-	*-	*-	*-
!!!system-decoration: s1,s2,s3,s4,s5
